assets/kongregate/mono.svg

<svg viewBox="0 0 24 24" xmlns="http://www.w3.org/2000/svg"><path d="m2.667 0a2.667 2.667 0 0 0 -2.667 2.667v18.666a2.667 2.667 0 0 0 2.667 2.667h18.666a2.667 2.667 0 0 0 2.667-2.667v-18.666a2.667 2.667 0 0 0 -2.667-2.667zm2.933 5.333h2.667v5.334h5.333v2.666h-5.333v5.334h-2.667zm8 8h1.678a1.6 1.6 0 0 1 1.43.885l.892 1.782h1.333v2.667h-2.666zm0-2.666 2.667-5.334h2.666v2.667h-1.333l-.891 1.782a1.6 1.6 0 0 1 -1.431.885z"/></svg>

<svg xmlns="http://www.w3.org/2000/svg" viewBox="0 0 24 24"><path d="M2.667 0A2.667 2.667 0 0 0 0 2.667v18.666A2.667 2.667 0 0 0 2.667 24h18.666A2.667 2.667 0 0 0 24 21.333V2.667A2.667 2.667 0 0 0 21.333 0zM5.6 5.333h2.667v5.334H13.6v2.666H8.267v5.334H5.6zm8 8h1.678a1.6 1.6 0 0 1 1.43.885L17.6 16h1.333v2.667h-2.666zm0-2.666 2.667-5.334h2.666V8H17.6l-.891 1.782a1.6 1.6 0 0 1-1.431.885z"/></svg>
